assets/icons/music/history.svg

<?xml version="1.0" encoding="UTF-8" standalone="no"?>
<svg viewBox="0 0 24 24" height="24" id="svg7384" version="1.1" width="24" sodipodi:docname="history.svg" inkscape:version="1.1.2 (76b9e6a115, 2022-02-25)"
   xmlns:inkscape="http://www.inkscape.org/namespaces/inkscape"
   xmlns:sodipodi="http://sodipodi.sourceforge.net/DTD/sodipodi-0.dtd"
   xmlns="http://www.w3.org/2000/svg"
   xmlns:svg="http://www.w3.org/2000/svg"
   xmlns:rdf="http://www.w3.org/1999/02/22-rdf-syntax-ns#"
   xmlns:cc="http://creativecommons.org/ns#"
   xmlns:dc="http://purl.org/dc/elements/1.1/">
   <sodipodi:namedview id="namedview21" pagecolor="#ffffff" bordercolor="#666666" borderopacity="1.0" inkscape:pageshadow="2" inkscape:pageopacity="0.0" inkscape:pagecheckerboard="0" showgrid="false" width="24px" inkscape:zoom="8" inkscape:cx="33.6875" inkscape:cy="4.625" inkscape:window-width="1920" inkscape:window-height="1043" inkscape:window-x="1920" inkscape:window-y="0" inkscape:window-maximized="1" inkscape:current-layer="svg7384">
      <inkscape:grid type="xygrid" id="grid837" dotted="false" />
      <inkscape:grid type="xygrid" id="grid839" dotted="true" spacingx="0.5" spacingy="0.5" empspacing="10" />
   </sodipodi:namedview>
   <metadata id="metadata20854">
      <rdf:RDF>
         <cc:Work rdf:about="">
            <dc:format>image/svg+xml</dc:format>
            <dc:type rdf:resource="http://purl.org/dc/dcmitype/StillImage" />
         </cc:Work>
      </rdf:RDF>
   </metadata>
   <defs id="defs7386">
      <linearGradient id="linearGradient5606" inkscape:swatch="solid">
         <stop id="stop5608" offset="0" style="stop-color:#000000;stop-opacity:1;" />
      </linearGradient>
      <linearGradient id="linearGradient4526" inkscape:swatch="solid">
         <stop id="stop4528" offset="0" style="stop-color:#ffffff;stop-opacity:1;" />
      </linearGradient>
      <linearGradient id="linearGradient3600-4" inkscape:swatch="gradient">
         <stop id="stop3602-7" offset="0" style="stop-color:#f4f4f4;stop-opacity:1" />
         <stop id="stop3604-6" offset="1" style="stop-color:#dbdbdb;stop-opacity:1" />
      </linearGradient>
   </defs>
   <path style="color:#000000;fill:#808080;stroke-linecap:square;-inkscape-stroke:none" d="m 16,13 v 0.5 3.707031 l 1.646484,1.646485 0.353516,0.353515 0.707031,-0.707031 -0.353515,-0.353516 -1.353516,-1.353515 v -3.292969 -0.5 z" id="path179" />
   <path id="path2" style="line-height:125%;-inkscape-font-specification:Ubuntu;text-align:center;fill:#808080;stroke-width:1" d="M 16.5 11 A 5.5 5.5 0 0 0 12.759766 12.486328 L 12.751953 12.478516 L 12 11.726562 C 11.827441 12.206454 11.668613 12.692191 11.525391 13.181641 C 11.383126 13.673341 11.254039 14.167775 11.136719 14.666016 C 11.627368 14.556005 12.122616 14.428417 12.625 14.283203 C 13.13105 14.134321 13.615106 13.974351 14.074219 13.802734 L 13.472656 13.199219 A 4.5 4.5 0 0 1 16.5 12 A 4.5 4.5 0 0 1 21 16.5 A 4.5 4.5 0 0 1 16.5 21 A 4.5 4.5 0 0 1 12.039062 17 L 11.037109 17 A 5.5 5.5 0 0 0 16.5 22 A 5.5 5.5 0 0 0 22 16.5 A 5.5 5.5 0 0 0 16.5 11 z " />
   <path id="path2-3" style="line-height:normal;font-variant-ligatures:normal;font-variant-position:normal;font-variant-caps:normal;font-variant-numeric:normal;font-variant-alternates:normal;font-feature-settings:normal;text-indent:0;text-align:start;text-decoration-line:none;text-decoration-style:solid;text-decoration-color:#000000;text-transform:none;text-orientation:mixed;shape-padding:0;isolation:auto;mix-blend-mode:normal;fill:#808080" d="M 14.513672 2.0410156 A 2.748 2.748 0 0 0 14.103516 2.0566406 L 6.8945312 3.1816406 C 6.0815313 3.2636406 5.993 3.6441875 6 4.1171875 L 6 13.636719 C 5.587 13.364719 5.1436875 13.171875 4.5546875 13.171875 C 3.7946875 13.171875 3.3423594 13.461703 3.0683594 13.845703 C 2.7943594 14.228703 2.703125 14.710984 2.703125 15.083984 C 2.703125 15.533984 2.8584062 16.013906 3.1914062 16.378906 C 3.5254063 16.744906 4.0374375 17.001953 4.7734375 17.001953 C 5.6054375 17.001953 6.1885313 16.770406 6.5195312 16.316406 C 6.7795312 15.959406 6.9245625 15.480578 6.9765625 14.892578 C 6.9835625 14.820578 6.9871875 14.746875 6.9921875 14.671875 C 6.9961875 14.611875 6.9950938 14.57 6.9960938 14.5 L 7 14.5 L 7 6.796875 C 7.022 6.176875 7.5839844 6.0859375 7.5839844 6.0859375 L 13.4375 5.171875 C 13.9985 4.999875 14 5.6953125 14 5.6953125 L 14 10 L 15 10 L 15 2.9316406 C 15.012 2.2456406 14.859672 2.0650156 14.513672 2.0410156 z " />
</svg>

<svg height="24" width="24" xmlns="http://www.w3.org/2000/svg"><path style="color:#000;fill:gray;stroke-linecap:square;-inkscape-stroke:none" d="M16 13v4.207l1.646 1.647.354.353.707-.707-.353-.354L17 16.793V13z"/><path style="line-height:125%;-inkscape-font-specification:Ubuntu;text-align:center;fill:gray;stroke-width:1" d="M16.5 11a5.5 5.5 0 0 0-3.74 1.486l-.008-.007-.752-.752a25.313 25.313 0 0 0-.863 2.939c.49-.11.986-.238 1.488-.383.506-.149.99-.309 1.45-.48l-.602-.604A4.5 4.5 0 0 1 16.5 12a4.5 4.5 0 0 1 4.5 4.5 4.5 4.5 0 0 1-4.5 4.5 4.5 4.5 0 0 1-4.46-4h-1.003a5.5 5.5 0 0 0 5.463 5 5.5 5.5 0 0 0 5.5-5.5 5.5 5.5 0 0 0-5.5-5.5z"/><path style="line-height:normal;font-variant-ligatures:normal;font-variant-position:normal;font-variant-caps:normal;font-variant-numeric:normal;font-variant-alternates:normal;font-feature-settings:normal;text-indent:0;text-align:start;text-decoration-line:none;text-decoration-style:solid;text-decoration-color:#000;text-transform:none;text-orientation:mixed;shape-padding:0;isolation:auto;mix-blend-mode:normal;fill:gray" d="M14.514 2.041a2.748 2.748 0 0 0-.41.016l-7.21 1.125c-.812.082-.901.462-.894.935v9.52c-.413-.272-.856-.465-1.445-.465-.76 0-1.213.29-1.487.674-.274.383-.365.865-.365 1.238 0 .45.155.93.488 1.295.334.366.846.623 1.582.623.832 0 1.416-.232 1.747-.686.26-.357.405-.835.457-1.423.007-.072.01-.146.015-.221.004-.06.003-.102.004-.172H7V6.797a.723.723 0 0 1 .584-.711l5.854-.914c.56-.172.562.523.562.523V10h1V2.932c.012-.686-.14-.867-.486-.891z"/></svg>
